X:1
T:Ferniehurst, SM
T:Ferniehurst, SM
T:Anonymous, 1905
T:Public Domain Courtesy of the Cyber Hymnal™
C:Anonymous, 1905
Z:Public Domain
Z:Courtesy of the Cyber Hymnal™
%%score ( 1 2 ) ( 3 4 )
L:1/8
Q:1/4=112
M:4/4
K:F
V:1 treble 
V:2 treble 
V:3 bass 
V:4 bass 
V:1
 F2 | [FG]2 [FA]2 [FB]2 [GB]2 | [FA]6 A2 | [GA]2 [FA]2 [Ec]2 [D=B]2 | [CA]6 [EA]2 | %5
 [EG]2 [CE]2 [CF]2 [Fd]2 | [Gc]2 [EB]2 [FA]2 [_EA]2 | [DA]2 [DG]2 F2 [EG]2 | F6 |] %9
V:2
 F2 | x8 | x6 A2 | x8 | x8 | x8 | x8 | x4 F2 x2 | F6 |] %9
V:3
 [F,A,]2 | [F,B,]2 [F,C]2 [F,D]2 [F,E]2 | [F,F]6 [F,C]2 | [F,^C]2 [E,D]2 [E,A,]2 (A,^G,) | %4
 A,6 [A,C]2 | [B,C]2 [G,B,]2 A,2 [D,A,]2 | [E,C]2 [G,C]2 [F,C]2 [^F,D]2 | %7
 [G,C]2 [B,,B,]2 [C,A,]2 [C,B,]2 | [F,A,]6 |] %9
V:4
 x2 | x8 | x8 | x6 E,2 | A,6 x2 | x4 A,2 x2 | x8 | x8 | x6 |] %9

